X:1
T:Title
%%score [ ( 1 2 ) ( 3 4 ) ]
L:1/8
Q:1/4=96
M:2/2
K:G
V:1 treble nm="Midi_74"
V:2 treble 
V:3 bass nm="Midi_74"
V:4 bass 
V:1
"^Bread of the World in Mercy Broken""^Rendez à Dieu\n(Psalm 118)" G4 E2 D2 | G2 G2 A2 c2 | %2
w: Bread of the|world in mer- cy|
 B4"^Louis Bourgeois\n(1510- 1561)" A4 |[M:3/2] d4 B2 B2 G2 c2 | B4 A4 G4 ||[M:2/2] G4 E2 D2 | %6
w: * ken,|Wine of the soul in|* cy shed,|By whom the|
 G2 G2 A2 c2 | B4 A4 |[M:3/2] d4 c2 B2 A2 G2 |[M:2/2] G2 F2 G4 ||[M:2/2] d4 d2 c2 | B4 A4 | %12
w: words of life were|* ken,|And in whose death our|sins are dead:|Look on the|* by|
[M:3/2] G2 F2 E4 D4 | D4 G2 G2 F2 E2 | G4 A4 B4 ||[M:3/2] !courtesy!=G4 G2 A2 B2 G2 | c2 c2 B4 A4 | %17
w: * * * ken,|Look on the tears by|sin- ners shed,|And be thy feast to|us the * ken,|
 d4 c2 B2 A2 G2 | G2 F2 G8 |][M:2/2] G4 E2 D2 | G2 G2 A2 c2 | B4 A4 |[M:3/2] d4 B2 B2 G2 c2 | %23
w: That by thy * *|souls are fed.|* of the|world in mer- cy||Wine of the soul in|
 B4 A4 G4 ||[M:2/2] G4 E2 D2 | G2 G2 A2 c2 | B4 A4 |[M:3/2] d4 c2 B2 A2 G2 |[M:2/2] G2 F2 G4 || %29
w: * cy shed,||words of life were|* ken,|And in whose death our|sins are dead:|
[M:2/2] d4 d2 c2 | B4 A4 |[M:3/2] G2 F2 E4 D4 | D4 G2 G2 F2 E2 | G4 A4 B4 ||[M:2/2] G4 G2 A2 | %35
w: Look on the|* by|* * * ken,|Look on the tears by|sin- ners shed,|And be thy|
 B2 G2 c2 c2 | B4 A4 | d4 c2 B2 | A2 G2 G2 F2 | G8 |] %40
w: feast to us the||That by thy|* our souls are|fed.|
V:2
 D4 B,2 D2 | E2 G2 E2 A2 | G4 F4 |[M:3/2] D4 D2 F2 E2 A2 | (G2 E2) F4 G4 ||[M:2/2] D4 C2 A,2 | %6
w: ||||||
 D2 E2 F2 G2 | G4 F4 |[M:3/2] G4 A2 G2 E2 E2 |[M:2/2] D2 D2 D4 ||[M:2/2] G4 B,2 C2 | (D2 E2) F4 | %12
w: ||||||
[M:3/2] E2 D2 (D2 ^C2) D4 | B,4 D2 E2 D2 B,2 | E4 E4 ^D4 ||[M:3/2] B,4 E2 F2 G2 B,2 | %16
w: ||||
 E2 E2 (=F2 E2) C4 | D4 G2 G2 E2 (DE) | D2 D2 D8 |][M:2/2] (B,2 D2) C2 A,2 | E2 D2 E2 E2 | G4 F4 | %22
w: ||||||
[M:3/2] F4 F2 F2 G2 A2 | (G2 E2) F4 G4 ||[M:2/2] B,4 C2 A,2 | D2 E2 F2 G2 | G4 F4 | %27
w: |||||
[M:3/2] G4 F2 G2 E2 E2 |[M:2/2] D2 D2 D4 ||[M:2/2] G4 G2 F2 | (D2 E2) F4 | %31
w: ||||
[M:3/2] E2 D2 (D2 ^C2) D4 | A,4 D2 E2 D2 B,2 | E4 E4 ^D4 ||[M:2/2] B,4 E2 D2 | D2 E2 E3 F | %36
w: |||||
 ^G4 (E2 F2) | =G4 G2 G2 | E2 E2 D2 D2 | D8 |] %40
w: * ken, *||||
V:3
 B,4 G,2 A,2 | B,2 D2 C2 E2 | D4 D4 |[M:3/2] F,4 F,2 D2 B,2 E2 | D6 C2 B,4 ||[M:2/2] B,4 G,2 F,2 | %6
w: ||||||
 G,2 B,2 D2 E2 | D4 D4 |[M:3/2] G,4 E2 D2 C2 B,2 |[M:2/2] A,2 A,2 B,4 ||[M:2/2] B,4 G,2 F,2 | %11
w: |||||
 G,4 (D2 C2) |[M:3/2] B,2 A,2 (B,2 A,2) F,4 | G,4 G,2 C2 A,2 G,2 | G,4 E,4 F,4 || %15
w: * by *||||
[M:3/2] G,4 B,2 D2 D2 G,2 | G,2 A,2 (A,2 ^G,2) A,4 | G,4 E2 D2 C2 B,2 | A,2 A,2 B,8 |] %19
w: ||||
[M:2/2] G,4 G,2 F,2 | B,2 G,2 C2 C2 | (D2 E2) A,4 |[M:3/2] B,4 B,2 B,2 B,2 E2 | D6 C2 B,4 || %24
w: |||||
[M:2/2] G,4 G,2 F,2 | G,2 B,2 D2 E2 | D4 D4 |[M:3/2] B,4 C2 D2 C2 B,2 |[M:2/2] A,2 A,2 B,4 || %29
w: |||||
[M:2/2] B,4 B,2 C2 | G,4 D4 |[M:3/2] B,2 A,2 (B,2 A,2) F,4 | F,4 G,2 C2 A,2 G,2 | G,4 E,4 F,4 || %34
w: |||||
[M:2/2] G,4 B,2 A,2 | G,2 B,2 E2 E2 | (E2 D2) C4 | D4 E3 D | C2 B,2 A,3 C | %39
w: ||to\- * *|||
"^Bishop Reginald Heber\n(1783-1826)" B,8 |] %40
w: |
V:4
 G,,4 G,2 F,2 | E,2 B,,2 C,2 A,,2 | (B,,2 C,2) D,4 |[M:3/2] B,,4 D,2 B,,2 E,2 A,,2 | %4
w: ||bro\- * *||
 (B,,2 C,2) D,4 G,,4 ||[M:2/2] G,,4 C,2 D,2 | B,,2 E,2 D,2 C,2 | (G,2 B,,2) D,4 | %8
w: mer\- * * *|||spo\- * *|
[M:3/2] B,,4 A,,2 B,,2 C,2 C,2 |[M:2/2] D,2 D,2 G,,4 ||[M:2/2] G,4 G,,2 A,,2 | (B,,2 C,2) D,4 | %12
w: |||heart * *|
[M:3/2] E,2 F,2 (G,2 A,2) D,4 | G,,4 B,,2 C,2 D,2 E,2 | C,4 C,4 B,,4 || %15
w: sor- row bro\- * *|||
[M:3/2] E,4 E,2 D,2 G,2 E,2 | C,2 C,2 (D,2 E,2) A,,4 | B,,4 C,2 G,,2 A,,2 (B,,C,) | D,2 D,2 G,,8 |] %19
w: |* * to\- * *|* * * grace our *||
[M:2/2] (G,,2 B,,2) C,2 D,2 | E,2 B,,2 C,2 A,,2 | (B,,3 C,) D,4 |[M:3/2] B,,4 D,2 D,2 E,2 A,,2 | %23
w: Bread * * *||bro\- * ken,||
 (B,,3 C,) D,4 G,,4 ||[M:2/2] (E,2 D,2) C,2 C,2 | B,,2 E,2 D,2 C,2 | (G,,2 B,,2) D,4 | %27
w: mer\- * * *|By * whom the||spo\- * *|
[M:3/2] G,,4 A,,2 B,,2 C,2 C,2 |[M:2/2] D,2 D,2 G,,4 ||[M:2/2] G,,4 G,,2 A,,2 | (B,,2 C,2) D,4 | %31
w: |||heart * *|
[M:3/2] E,2 F,2 (G,2 A,2) D,4 | D,4 B,,2 C,2 D,2 E,2 | C,4 C,4 B,,4 ||[M:2/2] E,4 E,2 F,2 | %35
w: sor- row bro\- * *||||
 G,2 E,2 C,3 D, | E,4 A,,4 | B,,4 C,2 G,,2 | (A,,B,,) C,2 D,2 D,2 | G,,8 |] %40
w: |||grace * * * *||

